X: 101
T:Father Kelly's Jig
% Nottingham Music Database
S:Trad, arr Phil Rowe
M:6/8
K:G
D|"G"GFG BAG|"D"FEF AFD|"G"GFG BAG|"G"B/2c/2dB "D"cAF|
"G"GFG BAG|"D"FEF AFD|"G"d^cd "D"fed|"D7"cAF "G"G2:|
A|:"G"B2d gdB|dgB dgB|"C"c2e gec|egc egc|"D"d2f afd|
"D"fad fad|[1"A7"gfg efg|"D"afd cAF:|[2"A"d^cd "D"fed|"D"cAF "G"G2||
|:A|"G"B3 BAG|"D"FEF AFD|"G"B3 BAG|B/2c/2dB "D"cAF|
"G"B3 BAG|"D"FEF AFD|"G"d^cd "D"fed|"D7"cAF "G"G2:|


